assets/images/arrow-left.svg

<svg fill="none" height="64" viewBox="0 0 64 64" width="64" xmlns="http://www.w3.org/2000/svg"><path d="m54.5002 29.625h-36.5688l21.8875-19c.35-.3062.1375-.875-.325-.875h-5.5312c-.2438 0-.475.0875-.6563.24375l-23.61872 20.49375c-.21632.1875-.38981.4193-.50871.6797-.1189.2605-.18043.5434-.18043.8297s.06153.5692.18043.8296.29239.4922.50871.6797l23.75622 20.6188c.0938.0812.2063.125.325.125h5.7188c.4625 0 .675-.575.325-.875l-21.8813-19h36.5688c.275 0 .5-.225.5-.5v-3.75c0-.275-.225-.5-.5-.5z" fill="#727272"/></svg>

<svg width="64" height="64" viewBox="0 0 64 64" fill="none" xmlns="http://www.w3.org/2000/svg">
<path d="M54.5002 29.625H17.9314L39.8189 10.625C40.1689 10.3188 39.9564 9.75 39.4939 9.75H33.9627C33.7189 9.75 33.4877 9.8375 33.3064 9.99375L9.68768 30.4875C9.47136 30.675 9.29787 30.9068 9.17897 31.1672C9.06007 31.4277 8.99854 31.7106 8.99854 31.9969C8.99854 32.2832 9.06007 32.5661 9.17897 32.8265C9.29787 33.0869 9.47136 33.3187 9.68768 33.5062L33.4439 54.125C33.5377 54.2062 33.6502 54.25 33.7689 54.25H39.4877C39.9502 54.25 40.1627 53.675 39.8127 53.375L17.9314 34.375H54.5002C54.7752 34.375 55.0002 34.15 55.0002 33.875V30.125C55.0002 29.85 54.7752 29.625 54.5002 29.625Z" fill="#727272"/>
</svg>
